X:1
T:Pioneer's Song
M:3/4
L:1/4
K:G
 B,| B, D D| D2 D/2D/2| E G G| G2 G/2A/2| B B B| B A G| A D E| D2 B,/2B,/2|\
 B, D D| D2 D/2D/2| E G G| G2 G/2A/2| B B B| A2 D/2D/2| E G A| G2 G|\
 A A B| A G F| G G E| D2 G| A A B| A A G| G G E| D2 B,| B, D D| D2 D/2D/2|\
 E G G| G2 G/2A/2| B B B| A D D| E G A| G2||
